svg/Account/account-small.svg

<svg xmlns="http://www.w3.org/2000/svg" width="24" height="24" viewBox="0 0 24 24">
    <g fill="none" stroke="currentColor" stroke-width="2" stroke-linecap="round">
        <path d="M6 19V18C6 15.7909 7.79086 14 10 14H14C16.2091 14 18 15.7909 18 18V19" stroke-dasharray="20" stroke-dashoffset="20">
            <animate attributeName="stroke-dashoffset" values="20;0" dur="0.4s" fill="freeze" />
        </path>
        <path d="M12 11C10.3431 11 9 9.65685 9 8C9 6.34315 10.3431 5 12 5C13.6569 5 15 6.34315 15 8C15 9.65685 13.6569 11 12 11Z" stroke-dasharray="20" stroke-dashoffset="20">
            <animate attributeName="stroke-dashoffset" values="20;0" begin="0.5s" dur="0.4s" fill="freeze" />
        </path>
    </g>
</svg>

<svg xmlns="http://www.w3.org/2000/svg" width="24" height="24" viewBox="0 0 24 24">
	<g fill="none" stroke="currentColor" stroke-width="2" stroke-linecap="round" stroke-linejoin="round">
		<path d="M6 19v-1c0 -2.21 1.79 -4 4 -4h4c2.21 0 4 1.79 4 4v1" stroke-dasharray="20" stroke-dashoffset="20">
			<animate attributeName="stroke-dashoffset" values="20;0" dur="0.2s" fill="freeze" />
		</path>
		<path d="M12 11c-1.66 0 -3 -1.34 -3 -3c0 -1.66 1.34 -3 3 -3c1.66 0 3 1.34 3 3c0 1.66 -1.34 3 -3 3Z" stroke-dasharray="20" stroke-dashoffset="20">
			<animate attributeName="stroke-dashoffset" values="20;0" begin="0.2s" dur="0.2s" fill="freeze" />
		</path>
	</g>
</svg>
